X:2

T:Madamoiselle Voulez Vous Dancer

T:La Bastringue

M:4/4

L:1/8

K:D

f2fff2gf | e2e2d4 | c3de2c2 | d2e2f2a2 | f2fff2gf | e2e2d2(3Adf | g3fe2A2 |B2c2d4 :: d 2df afdA |

=c2=ce gecA | d2df afda | gfec d3A | d2df afdA | =c2ce gecA | d2df afda | g fec d4 :||

                       


BATA BUIDE, AN. AKA and see "The Yellow Wattle [2]."

                       

BATA DROIGEAN, AN. AKA and see "The Blackthorn Stick [2]."

           

BATAFRE. French, Polka. G Major. Standard tuning. AABB. Stevens (Massif Central), 1988; No. 105.

           

BATCHELDER'S (REEL). AKA and see "Atlanta Hornpipe," "Quigley's Reel." American, Canadian; Reel. F Major. Standard tuning. AABB. The tune has sometimes been credited to the fiddler of the title, Alvah Batchelder, but is also associated with Albert Quigly under a title with his name; they were both noted New England fiddlers. It appears in Ryan's Mamouth Collection (1883) and Coles 1000 (1940) as the "Atlanta Hornpipe." The tune is a popular number among North American contra dance circles and can be found in the Pacific Northwest as well as New England. Sources for notated versions: Jane McBride with Strathspey [Phillips]; accordion player Laurie Andres (Seattle) [Songer]. Miller & Perron (New England Fiddlers Repertoire), 1983; No. 130. Phillips (Traditional American Fiddle Tunes), vol. 1, 1994; pg. 19. Songer (Portland Collection), 1997; pg. 24. Tolman (Nelson Music Collection), 1969; pg. 9. Alcazar Dance Series FR 203, "New England Chestnuts" (1980). Kicking Mule KM216, Strathspey ‑ "New England Contra Dance Music" (1977).

